packages/ui/public/icons/tipped-star-small-icon.svg

<svg width="12" height="13" viewBox="0 0 12 13" fill="none" xmlns="http://www.w3.org/2000/svg">
  <path d="M5.26314 4.66121L6.08579 0.831055L6.90843 4.66121C7.01468 5.15062 7.39413 5.5306 7.88286 5.63699L11.7077 6.46078L7.88286 7.28457C7.39413 7.39096 7.01468 7.77094 6.90843 8.26034L6.08579 12.0905L5.26314 8.26034C5.1569 7.77094 4.77745 7.39096 4.28872 7.28457L0.463882 6.46078L4.28872 5.63699C4.77745 5.5306 5.1569 5.15062 5.26314 4.66121Z" fill="#BF7AF0" />
</svg>

<svg width="12" height="13" fill="none" xmlns="http://www.w3.org/2000/svg"><path d="m5.263 4.661.823-3.83.822 3.83c.107.49.486.87.975.976l3.825.824-3.825.824a1.273 1.273 0 0 0-.975.975l-.822 3.83-.823-3.83a1.273 1.273 0 0 0-.974-.975L.464 6.46l3.825-.824c.488-.106.868-.486.974-.976Z" fill="#BF7AF0"/></svg>
